svg/24/checkmark-circle--filled.svg

<svg width="24" height="24" viewBox="0 0 24 24" fill="currentColor" xmlns="http://www.w3.org/2000/svg"><path fill-rule="evenodd" clip-rule="evenodd" d="M12 22C17.5228 22 22 17.5228 22 12C22 6.47715 17.5228 2 12 2C6.47715 2 2 6.47715 2 12C2 17.5228 6.47715 22 12 22ZM16.7803 8.71967C17.0732 9.01256 17.0732 9.48744 16.7803 9.78033L10.7803 15.7803C10.4874 16.0732 10.0126 16.0732 9.71967 15.7803L6.71967 12.7803C6.42678 12.4874 6.42678 12.0126 6.71967 11.7197C7.01256 11.4268 7.48744 11.4268 7.78033 11.7197L10.25 14.1893L15.7197 8.71967C16.0126 8.42678 16.4874 8.42678 16.7803 8.71967Z"/></svg>

<svg xmlns="http://www.w3.org/2000/svg" width="24" height="24" fill="currentColor" viewBox="0 0 24 24">
  <path fill-rule="evenodd" d="M12 22c5.523 0 10-4.477 10-10S17.523 2 12 2 2 6.477 2 12s4.477 10 10 10Zm4.78-13.28a.75.75 0 0 1 0 1.06l-6 6a.75.75 0 0 1-1.06 0l-3-3a.75.75 0 1 1 1.06-1.06l2.47 2.47 5.47-5.47a.75.75 0 0 1 1.06 0Z" clip-rule="evenodd"/>
</svg>
